48x48/apps/brasero.svg

<svg viewBox="0 0 48 48"><defs><linearGradient id="linearGradient3764" x1="1" x2="47" gradientUnits="userSpaceOnUse" gradientTransform="matrix(0,-1,1,0,-1.5e-6,47.999998)"><stop stop-color="#434343" stop-opacity="1"/><stop offset="1" stop-color="#4d4d4d" stop-opacity="1"/></linearGradient><clipPath id="clipPath-309962591"><g transform="translate(0,-1004.3622)"><path d="m -24 13 c 0 1.105 -0.672 2 -1.5 2 -0.828 0 -1.5 -0.895 -1.5 -2 0 -1.105 0.672 -2 1.5 -2 0.828 0 1.5 0.895 1.5 2 z" transform="matrix(15.333333,0,0,11.5,414.99999,878.8622)" fill="#1890d0"/></g></clipPath><clipPath id="clipPath-315841711"><g transform="translate(0,-1004.3622)"><path d="m -24 13 c 0 1.105 -0.672 2 -1.5 2 -0.828 0 -1.5 -0.895 -1.5 -2 0 -1.105 0.672 -2 1.5 -2 0.828 0 1.5 0.895 1.5 2 z" transform="matrix(15.333333,0,0,11.5,414.99999,878.8622)" fill="#1890d0"/></g></clipPath><linearGradient id="linear0" gradientUnits="userSpaceOnUse" x1="0" x2="1" gradientTransform="matrix(-0.0328728,-4.018518,5.309974,-0.0248777,-91.154216,125.14714)"><stop stop-color="#ec2c20" stop-opacity="1"/><stop offset="1" stop-color="#fab218" stop-opacity="1"/></linearGradient><linearGradient id="linear1" gradientUnits="userSpaceOnUse" x1="0" x2="1" gradientTransform="matrix(0.115078,2.68729,-3.550921,0.0870898,-92.13101,122.46896)"><stop stop-color="#fade17" stop-opacity="1"/><stop offset="1" stop-color="#f1511a" stop-opacity="1"/></linearGradient><linearGradient id="linear0" gradientUnits="userSpaceOnUse" x1="0" x2="1" gradientTransform="matrix(-0.0328728,-4.018518,5.309974,-0.0248777,-91.154216,125.14714)"><stop stop-color="#ec2c20" stop-opacity="1"/><stop offset="1" stop-color="#fab218" stop-opacity="1"/></linearGradient><linearGradient id="linear1" gradientUnits="userSpaceOnUse" x1="0" x2="1" gradientTransform="matrix(0.115078,2.68729,-3.550921,0.0870898,-92.13101,122.46896)"><stop stop-color="#fade17" stop-opacity="1"/><stop offset="1" stop-color="#f1511a" stop-opacity="1"/></linearGradient></defs><g><path d="m 36.31 5 c 5.859 4.062 9.688 10.831 9.688 18.5 c 0 12.426 -10.07 22.5 -22.5 22.5 c -7.669 0 -14.438 -3.828 -18.5 -9.688 c 1.037 1.822 2.306 3.499 3.781 4.969 c 4.085 3.712 9.514 5.969 15.469 5.969 c 12.703 0 23 -10.298 23 -23 c 0 -5.954 -2.256 -11.384 -5.969 -15.469 c -1.469 -1.475 -3.147 -2.744 -4.969 -3.781 z m 4.969 3.781 c 3.854 4.113 6.219 9.637 6.219 15.719 c 0 12.703 -10.297 23 -23 23 c -6.081 0 -11.606 -2.364 -15.719 -6.219 c 4.16 4.144 9.883 6.719 16.219 6.719 c 12.703 0 23 -10.298 23 -23 c 0 -6.335 -2.575 -12.06 -6.719 -16.219 z" opacity="0.05"/><path d="m 41.28 8.781 c 3.712 4.085 5.969 9.514 5.969 15.469 c 0 12.703 -10.297 23 -23 23 c -5.954 0 -11.384 -2.256 -15.469 -5.969 c 4.113 3.854 9.637 6.219 15.719 6.219 c 12.703 0 23 -10.298 23 -23 c 0 -6.081 -2.364 -11.606 -6.219 -15.719 z" opacity="0.1"/><path d="m 31.25 2.375 c 8.615 3.154 14.75 11.417 14.75 21.13 c 0 12.426 -10.07 22.5 -22.5 22.5 c -9.708 0 -17.971 -6.135 -21.12 -14.75 a 23 23 0 0 0 44.875 -7 a 23 23 0 0 0 -16 -21.875 z" opacity="0.2"/></g><g><path d="m 24 1 c 12.703 0 23 10.297 23 23 c 0 12.703 -10.297 23 -23 23 -12.703 0 -23 -10.297 -23 -23 0 -12.703 10.297 -23 23 -23 z" fill="url(#linearGradient3764)" fill-opacity="1"/></g><g/><g><g clip-path="url(#clipPath-309962591)"><g transform="translate(1,1)"><g opacity="0.1"><!-- color: #4d4d4d --><g><path d="m 24 21 c 0.828 0 1.582 0.332 2.125 0.875 c 0.543 0.543 0.875 1.297 0.875 2.125 c 0 0.828 -0.332 1.582 -0.875 2.125 c -0.543 0.543 -1.297 0.875 -2.125 0.875 c -0.828 0 -1.582 -0.332 -2.125 -0.875 c -0.543 -0.543 -0.875 -1.297 -0.875 -2.125 c 0 -0.828 0.332 -1.582 0.875 -2.125 c 0.543 -0.543 1.297 -0.875 2.125 -0.875 m 0 0" fill="#000" stroke="none" fill-rule="nonzero" fill-opacity="0.498"/><path d="m 20.781 5.5 c 4.367 7.113 0.426 8.25 -0.406 13.813 c 0.406 -0.313 0.801 -0.641 1.281 -0.844 c 0.719 -0.305 1.516 -0.469 2.344 -0.469 c 0.828 0 1.625 0.164 2.344 0.469 c 0.719 0.305 1.363 0.738 1.906 1.281 c 0.543 0.543 0.977 1.188 1.281 1.906 c 0.305 0.719 0.469 1.516 0.469 2.344 c 0 0.828 -0.164 1.625 -0.469 2.344 c -0.305 0.719 -0.738 1.363 -1.281 1.906 c -0.543 0.543 -1.188 0.977 -1.906 1.281 c -0.719 0.305 -1.516 0.469 -2.344 0.469 c -0.828 0 -1.625 -0.164 -2.344 -0.469 c -0.719 -0.305 -1.363 -0.738 -1.906 -1.281 c -0.543 -0.543 -0.977 -1.188 -1.281 -1.906 c -0.305 -0.719 -0.469 -1.516 -0.469 -2.344 c 0 -0.828 0.164 -1.625 0.469 -2.344 c 0.125 -0.297 0.363 -0.512 0.531 -0.781 c -0.566 -0.84 -1.313 -1.504 -3 -1.875 c 4 7 -4.77 6.219 -3.938 12.313 c -1.078 -0.297 -2.066 -2.305 -1.25 -4.781 c -2.816 3.477 -1.813 6.469 0.188 9.469 c -2 -2 -5.27 -1.992 -6.27 -4.805 c -1.48 8.57 9.27 16.02 19.832 16.02 l 0.75 0 c 6.621 0 16.465 -5.938 16.734 -13.27 c -0.93 1.379 -5.05 4.051 -6.891 4.051 c 4.848 -4 5.852 -10 1.531 -15.75 c 0.32 3.75 -1.699 5.754 -3.469 7.03 c 2.77 -5.281 2.77 -11.297 -2.656 -16.594 c 0.434 1.297 0.766 2.313 0.469 3.5 c 0.301 -1.453 -4.03 -8.184 -10.25 -10.688 m 0 0.004" fill="#000" stroke="none" fill-rule="nonzero"/><path d="m 20 28.406 c -2.098 2.176 -4 4.5 -4 7.594 c 0 5 3.387 9 8.188 9 l 0.188 0 c 5.742 -0.195 9.102 -6.703 4.438 -12.188 c -0.801 -0.82 -0.813 -2.813 0.191 -4.813 c -2 1 -3 3 -2 5 c -1.078 -0.809 -1.328 -1.992 -1.281 -3.344 c -0.555 0.168 -1.113 0.344 -1.719 0.344 c -0.832 0 -1.629 -0.164 -2.348 -0.469 c -0.625 -0.266 -1.16 -0.676 -1.652 -1.125 m -0.004 0" fill="#000" stroke="none" fill-rule="nonzero"/></g></g></g></g></g><g><g clip-path="url(#clipPath-315841711)"><!-- color: #4d4d4d --><g><path d="m 24 21 c 0.828 0 1.582 0.332 2.125 0.875 c 0.543 0.543 0.875 1.297 0.875 2.125 c 0 0.828 -0.332 1.582 -0.875 2.125 c -0.543 0.543 -1.297 0.875 -2.125 0.875 c -0.828 0 -1.582 -0.332 -2.125 -0.875 c -0.543 -0.543 -0.875 -1.297 -0.875 -2.125 c 0 -0.828 0.332 -1.582 0.875 -2.125 c 0.543 -0.543 1.297 -0.875 2.125 -0.875 m 0 0" fill="#fff" stroke="none" fill-rule="nonzero" fill-opacity="0.498"/><path d="m 20.781 5.5 c 4.367 7.113 0.426 8.25 -0.406 13.813 c 0.406 -0.313 0.801 -0.641 1.281 -0.844 c 0.719 -0.305 1.516 -0.469 2.344 -0.469 c 0.828 0 1.625 0.164 2.344 0.469 c 0.719 0.305 1.363 0.738 1.906 1.281 c 0.543 0.543 0.977 1.188 1.281 1.906 c 0.305 0.719 0.469 1.516 0.469 2.344 c 0 0.828 -0.164 1.625 -0.469 2.344 c -0.305 0.719 -0.738 1.363 -1.281 1.906 c -0.543 0.543 -1.188 0.977 -1.906 1.281 c -0.719 0.305 -1.516 0.469 -2.344 0.469 c -0.828 0 -1.625 -0.164 -2.344 -0.469 c -0.719 -0.305 -1.363 -0.738 -1.906 -1.281 c -0.543 -0.543 -0.977 -1.188 -1.281 -1.906 c -0.305 -0.719 -0.469 -1.516 -0.469 -2.344 c 0 -0.828 0.164 -1.625 0.469 -2.344 c 0.125 -0.297 0.363 -0.512 0.531 -0.781 c -0.566 -0.84 -1.313 -1.504 -3 -1.875 c 4 7 -4.77 6.219 -3.938 12.313 c -1.078 -0.297 -2.066 -2.305 -1.25 -4.781 c -2.816 3.477 -1.813 6.469 0.188 9.469 c -2 -2 -5.27 -1.992 -6.27 -4.805 c -1.48 8.57 9.27 16.02 19.832 16.02 l 0.75 0 c 6.621 0 16.465 -5.938 16.734 -13.27 c -0.93 1.379 -5.05 4.051 -6.891 4.051 c 4.848 -4 5.852 -10 1.531 -15.75 c 0.32 3.75 -1.699 5.754 -3.469 7.03 c 2.77 -5.281 2.77 -11.297 -2.656 -16.594 c 0.434 1.297 0.766 2.313 0.469 3.5 c 0.301 -1.453 -4.03 -8.184 -10.25 -10.688 m 0 0.004" fill="url(#linear0)" stroke="none" fill-rule="nonzero"/><path d="m 20 28.406 c -2.098 2.176 -4 4.5 -4 7.594 c 0 5 3.387 9 8.188 9 l 0.188 0 c 5.742 -0.195 9.102 -6.703 4.438 -12.188 c -0.801 -0.82 -0.813 -2.813 0.191 -4.813 c -2 1 -3 3 -2 5 c -1.078 -0.809 -1.328 -1.992 -1.281 -3.344 c -0.555 0.168 -1.113 0.344 -1.719 0.344 c -0.832 0 -1.629 -0.164 -2.348 -0.469 c -0.625 -0.266 -1.16 -0.676 -1.652 -1.125 m -0.004 0" fill="url(#linear1)" stroke="none" fill-rule="nonzero"/></g></g></g><g><path d="m 40.03 7.531 c 3.712 4.084 5.969 9.514 5.969 15.469 0 12.703 -10.297 23 -23 23 c -5.954 0 -11.384 -2.256 -15.469 -5.969 4.178 4.291 10.01 6.969 16.469 6.969 c 12.703 0 23 -10.298 23 -23 0 -6.462 -2.677 -12.291 -6.969 -16.469 z" opacity="0.1"/></g></svg>

<?xml version="1.0" encoding="UTF-8" standalone="no"?>
<svg
   xmlns:dc="http://purl.org/dc/elements/1.1/"
   xmlns:cc="http://creativecommons.org/ns#"
   xmlns:rdf="http://www.w3.org/1999/02/22-rdf-syntax-ns#"
   xmlns:svg="http://www.w3.org/2000/svg"
   xmlns="http://www.w3.org/2000/svg"
   xmlns:sodipodi="http://sodipodi.sourceforge.net/DTD/sodipodi-0.dtd"
   xmlns:inkscape="http://www.inkscape.org/namespaces/inkscape"
   viewBox="0 0 48 48"
   id="svg2"
   version="1.1"
   inkscape:version="0.48.4 r9939"
   width="100%"
   height="100%"
   sodipodi:docname="brasero.svg">
  <metadata
     id="metadata91">
    <rdf:RDF>
      <cc:Work
         rdf:about="">
        <dc:format>image/svg+xml</dc:format>
        <dc:type
           rdf:resource="http://purl.org/dc/dcmitype/StillImage" />
      </cc:Work>
    </rdf:RDF>
  </metadata>
  <sodipodi:namedview
     pagecolor="#ffffff"
     bordercolor="#666666"
     borderopacity="1"
     objecttolerance="10"
     gridtolerance="10"
     guidetolerance="10"
     inkscape:pageopacity="0"
     inkscape:pageshadow="2"
     inkscape:window-width="1440"
     inkscape:window-height="834"
     id="namedview89"
     showgrid="false"
     inkscape:zoom="4.9166667"
     inkscape:cx="-27.60061"
     inkscape:cy="24"
     inkscape:window-x="0"
     inkscape:window-y="27"
     inkscape:window-maximized="1"
     inkscape:current-layer="svg2" />
  <defs
     id="defs4">
    <linearGradient
       id="linearGradient3764"
       x1="1"
       x2="47"
       gradientUnits="userSpaceOnUse"
       gradientTransform="matrix(0,-1,1,0,-1.5e-6,47.999998)">
      <stop
         stop-color="#434343"
         stop-opacity="1"
         id="stop7" />
      <stop
         offset="1"
         stop-color="#4d4d4d"
         stop-opacity="1"
         id="stop9" />
    </linearGradient>
    <clipPath
       id="clipPath-309962591">
      <g
         transform="translate(0,-1004.3622)"
         id="g12">
        <path
           d="m -24 13 c 0 1.105 -0.672 2 -1.5 2 -0.828 0 -1.5 -0.895 -1.5 -2 0 -1.105 0.672 -2 1.5 -2 0.828 0 1.5 0.895 1.5 2 z"
           transform="matrix(15.333333,0,0,11.5,414.99999,878.8622)"
           fill="#1890d0"
           id="path14" />
      </g>
    </clipPath>
    <clipPath
       id="clipPath-315841711">
      <g
         transform="translate(0,-1004.3622)"
         id="g17">
        <path
           d="m -24 13 c 0 1.105 -0.672 2 -1.5 2 -0.828 0 -1.5 -0.895 -1.5 -2 0 -1.105 0.672 -2 1.5 -2 0.828 0 1.5 0.895 1.5 2 z"
           transform="matrix(15.333333,0,0,11.5,414.99999,878.8622)"
           fill="#1890d0"
           id="path19" />
      </g>
    </clipPath>
    <linearGradient
       id="linear0"
       gradientUnits="userSpaceOnUse"
       x1="0"
       x2="1"
       gradientTransform="matrix(-0.0328728,-4.018518,5.309974,-0.0248777,-91.154216,125.14714)">
      <stop
         stop-color="#ec2c20"
         stop-opacity="1"
         id="stop22" />
      <stop
         offset="1"
         stop-color="#fab218"
         stop-opacity="1"
         id="stop24" />
    </linearGradient>
    <linearGradient
       id="linear1"
       gradientUnits="userSpaceOnUse"
       x1="0"
       x2="1"
       gradientTransform="matrix(0.115078,2.68729,-3.550921,0.0870898,-92.13101,122.46896)">
      <stop
         stop-color="#fade17"
         stop-opacity="1"
         id="stop27" />
      <stop
         offset="1"
         stop-color="#f1511a"
         stop-opacity="1"
         id="stop29" />
    </linearGradient>
    <linearGradient
       id="linearGradient31"
       gradientUnits="userSpaceOnUse"
       x1="0"
       x2="1"
       gradientTransform="matrix(-0.0328728,-4.018518,5.309974,-0.0248777,-91.154216,125.14714)">
      <stop
         stop-color="#ec2c20"
         stop-opacity="1"
         id="stop33" />
      <stop
         offset="1"
         stop-color="#fab218"
         stop-opacity="1"
         id="stop35" />
    </linearGradient>
    <linearGradient
       id="linearGradient37"
       gradientUnits="userSpaceOnUse"
       x1="0"
       x2="1"
       gradientTransform="matrix(0.115078,2.68729,-3.550921,0.0870898,-92.13101,122.46896)">
      <stop
         stop-color="#fade17"
         stop-opacity="1"
         id="stop39" />
      <stop
         offset="1"
         stop-color="#f1511a"
         stop-opacity="1"
         id="stop41" />
    </linearGradient>
    <linearGradient
       id="linearGradient3764-5"
       x1="1"
       x2="47"
       gradientUnits="userSpaceOnUse"
       gradientTransform="matrix(0,-1,1,0,-1.5e-6,47.999998)">
      <stop
         stop-color="#b5945b"
         stop-opacity="1"
         id="stop7-2" />
      <stop
         offset="1"
         stop-color="#bb9e69"
         stop-opacity="1"
         id="stop9-3" />
    </linearGradient>
    <clipPath
       id="clipPath-899834956">
      <g
         transform="translate(0,-1004.3622)"
         id="g12-5">
        <path
           d="m -24 13 c 0 1.105 -0.672 2 -1.5 2 -0.828 0 -1.5 -0.895 -1.5 -2 0 -1.105 0.672 -2 1.5 -2 0.828 0 1.5 0.895 1.5 2 z"
           transform="matrix(15.333333,0,0,11.5,414.99999,878.8622)"
           fill="#1890d0"
           id="path14-8" />
      </g>
    </clipPath>
    <clipPath
       id="clipPath-909443126">
      <g
         transform="translate(0,-1004.3622)"
         id="g17-3">
        <path
           d="m -24 13 c 0 1.105 -0.672 2 -1.5 2 -0.828 0 -1.5 -0.895 -1.5 -2 0 -1.105 0.672 -2 1.5 -2 0.828 0 1.5 0.895 1.5 2 z"
           transform="matrix(15.333333,0,0,11.5,414.99999,878.8622)"
           fill="#1890d0"
           id="path19-5" />
      </g>
    </clipPath>
    <clipPath
       id="clipPath-909443126-7">
      <g
         transform="translate(0,-1004.3622)"
         id="g17-2">
        <path
           style="fill:#1890d0"
           inkscape:connector-curvature="0"
           d="m -24,13 c 0,1.105 -0.672,2 -1.5,2 -0.828,0 -1.5,-0.895 -1.5,-2 0,-1.105 0.672,-2 1.5,-2 0.828,0 1.5,0.895 1.5,2 z"
           transform="matrix(15.333333,0,0,11.5,414.99999,878.8622)"
           id="path19-3" />
      </g>
    </clipPath>
    <linearGradient
       id="linearGradient3759">
      <stop
         id="stop3761"
         offset="0"
         style="stop-color:#a75e15;stop-opacity:1;" />
      <stop
         id="stop3763"
         offset="1"
         style="stop-color:#ffffff;stop-opacity:0;" />
    </linearGradient>
    <linearGradient
       id="linearGradient3777">
      <stop
         id="stop3779"
         offset="0"
         style="stop-color:#e0dd00;stop-opacity:1;" />
      <stop
         id="stop3781"
         offset="1"
         style="stop-color:#000000;stop-opacity:0;" />
    </linearGradient>
    <clipPath
       id="clipPath-315841711-3">
      <g
         transform="translate(0,-1004.3622)"
         id="g17-6">
        <path
           style="fill:#1890d0"
           inkscape:connector-curvature="0"
           d="m -24,13 c 0,1.105 -0.672,2 -1.5,2 -0.828,0 -1.5,-0.895 -1.5,-2 0,-1.105 0.672,-2 1.5,-2 0.828,0 1.5,0.895 1.5,2 z"
           transform="matrix(15.333333,0,0,11.5,414.99999,878.8622)"
           id="path19-1" />
      </g>
    </clipPath>
    <linearGradient
       id="linear0-2"
       gradientUnits="userSpaceOnUse"
       x1="0"
       x2="1"
       gradientTransform="matrix(-0.0328728,-4.018518,5.309974,-0.0248777,-91.154216,125.14714)">
      <stop
         stop-color="#ec2c20"
         stop-opacity="1"
         id="stop22-0" />
      <stop
         offset="1"
         stop-color="#fab218"
         stop-opacity="1"
         id="stop24-3" />
    </linearGradient>
    <linearGradient
       id="linear1-4"
       gradientUnits="userSpaceOnUse"
       x1="0"
       x2="1"
       gradientTransform="matrix(0.115078,2.68729,-3.550921,0.0870898,-92.13101,122.46896)">
      <stop
         stop-color="#fade17"
         stop-opacity="1"
         id="stop27-0" />
      <stop
         offset="1"
         stop-color="#f1511a"
         stop-opacity="1"
         id="stop29-1" />
    </linearGradient>
    <clipPath
       id="clipPath-315841711-3-6">
      <g
         transform="translate(0,-1004.3622)"
         id="g17-6-1">
        <path
           style="fill:#1890d0"
           inkscape:connector-curvature="0"
           d="m -24,13 c 0,1.105 -0.672,2 -1.5,2 -0.828,0 -1.5,-0.895 -1.5,-2 0,-1.105 0.672,-2 1.5,-2 0.828,0 1.5,0.895 1.5,2 z"
           transform="matrix(15.333333,0,0,11.5,414.99999,878.8622)"
           id="path19-1-4" />
      </g>
    </clipPath>
    <linearGradient
       id="linear0-2-2"
       gradientUnits="userSpaceOnUse"
       x1="0"
       x2="1"
       gradientTransform="matrix(-0.0328728,-4.018518,5.309974,-0.0248777,-91.154216,125.14714)">
      <stop
         stop-color="#ec2c20"
         stop-opacity="1"
         id="stop22-0-8" />
      <stop
         offset="1"
         stop-color="#fab218"
         stop-opacity="1"
         id="stop24-3-6" />
    </linearGradient>
    <linearGradient
       id="linear1-4-7"
       gradientUnits="userSpaceOnUse"
       x1="0"
       x2="1"
       gradientTransform="matrix(0.115078,2.68729,-3.550921,0.0870898,-92.13101,122.46896)">
      <stop
         stop-color="#fade17"
         stop-opacity="1"
         id="stop27-0-8" />
      <stop
         offset="1"
         stop-color="#f1511a"
         stop-opacity="1"
         id="stop29-1-1" />
    </linearGradient>
    <clipPath
       id="clipPath-315841711-3-6-7">
      <g
         transform="translate(0,-1004.3622)"
         id="g17-6-1-3">
        <path
           style="fill:#1890d0"
           inkscape:connector-curvature="0"
           d="m -24,13 c 0,1.105 -0.672,2 -1.5,2 -0.828,0 -1.5,-0.895 -1.5,-2 0,-1.105 0.672,-2 1.5,-2 0.828,0 1.5,0.895 1.5,2 z"
           transform="matrix(15.333333,0,0,11.5,414.99999,878.8622)"
           id="path19-1-4-9" />
      </g>
    </clipPath>
  </defs>
  <g
     id="g55" />
  <g
     id="g3115">
    <g
       inkscape:label="shadows"
       id="layer2">
      <rect
         ry="13.03658"
         rx="13.03658"
         y="1"
         x="1"
         height="46"
         width="46"
         id="rect3007"
         style="opacity:0.1;fill:#000000;fill-opacity:1;fill-rule:nonzero;stroke:none" />
      <rect
         style="opacity:0.1;fill:#000000;fill-opacity:1;fill-rule:nonzero;stroke:none"
         id="rect3011"
         width="47"
         height="47"
         x="0.5"
         y="0.5"
         rx="13.319984"
         ry="13.319984" />
      <rect
         style="opacity:0.1;fill:#000000;fill-opacity:1;fill-rule:nonzero;stroke:none"
         id="rect3013"
         width="46.5"
         height="46.5"
         x="0.75"
         y="0.75"
         rx="13.178282"
         ry="13.178282" />
    </g>
    <g
       style="display:inline"
       inkscape:label="background-color"
       id="layer1">
      <rect
         transform="matrix(0,-1,1,0,0,0)"
         ry="12.753176"
         rx="12.753176"
         y="1.5"
         x="-46.5"
         height="45"
         width="45"
         id="rect2988"
         style="fill:#b3b3b3;fill-opacity:1;fill-rule:nonzero;stroke:none" />
    </g>
  </g>
  <path
     transform="translate(114.50848,4.3762497)"
     sodipodi:type="arc"
     style="fill:#333333;fill-opacity:1;fill-rule:nonzero;stroke:none"
     id="path3043-4"
     sodipodi:cx="-90.508476"
     sodipodi:cy="20.542374"
     sodipodi:rx="19.932203"
     sodipodi:ry="19.932203"
     d="m -70.576273,20.542374 a 19.932203,19.932203 0 1 1 -39.864407,0 19.932203,19.932203 0 1 1 39.864407,0 z" />
  <g
     id="g73-5-3-4"
     transform="translate(0.47722229,-2.3458266)">
    <g
       clip-path="url(#clipPath-315841711-3-6-7)"
       id="g75-2-0-5">
      <!-- color: #4d4d4d -->
      <g
         id="g77-1-1-6">
        <path
           d="m 24,21 c 0.828,0 1.582,0.332 2.125,0.875 C 26.668,22.418 27,23.172 27,24 27,24.828 26.668,25.582 26.125,26.125 25.582,26.668 24.828,27 24,27 23.172,27 22.418,26.668 21.875,26.125 21.332,25.582 21,24.828 21,24 21,23.172 21.332,22.418 21.875,21.875 22.418,21.332 23.172,21 24,21 m 0,0"
           id="path79-5-9-8"
           inkscape:connector-curvature="0"
           style="fill:#ffffff;fill-opacity:0.49800002;fill-rule:nonzero;stroke:none" />
        <path
           d="m 20.781,5.5 c 4.367,7.113 0.426,8.25 -0.406,13.813 C 20.781,19 21.176,18.672 21.656,18.469 22.375,18.164 23.172,18 24,18 c 0.828,0 1.625,0.164 2.344,0.469 0.719,0.305 1.363,0.738 1.906,1.281 0.543,0.543 0.977,1.188 1.281,1.906 C 29.836,22.375 30,23.172 30,24 c 0,0.828 -0.164,1.625 -0.469,2.344 -0.305,0.719 -0.738,1.363 -1.281,1.906 -0.543,0.543 -1.188,0.977 -1.906,1.281 C 25.625,29.836 24.828,30 24,30 23.172,30 22.375,29.836 21.656,29.531 20.937,29.226 20.293,28.793 19.75,28.25 19.207,27.707 18.773,27.062 18.469,26.344 18.164,25.625 18,24.828 18,24 18,23.172 18.164,22.375 18.469,21.656 18.594,21.359 18.832,21.144 19,20.875 18.434,20.035 17.687,19.371 16,19 c 4,7 -4.77,6.219 -3.938,12.313 -1.078,-0.297 -2.066,-2.305 -1.25,-4.781 -2.816,3.477 -1.813,6.469 0.188,9.469 -2,-2 -5.27,-1.992 -6.27,-4.805 -1.48,8.57 9.27,16.02 19.832,16.02 l 0.75,0 c 6.621,0 16.465,-5.938 16.734,-13.27 -0.93,1.379 -5.05,4.051 -6.891,4.051 4.848,-4 5.852,-10 1.531,-15.75 0.32,3.75 -1.699,5.754 -3.469,7.03 2.77,-5.281 2.77,-11.297 -2.656,-16.594 0.434,1.297 0.766,2.313 0.469,3.5 C 31.331,14.73 27,7.999 20.78,5.495 m 0,0.004"
           id="path81-9-9-0"
           style="fill:#a02c2c;fill-rule:nonzero;stroke:none"
           inkscape:connector-curvature="0" />
        <path
           d="m 20,28.406 c -2.098,2.176 -4,4.5 -4,7.594 0,5 3.387,9 8.188,9 l 0.188,0 c 5.742,-0.195 9.102,-6.703 4.438,-12.188 -0.801,-0.82 -0.813,-2.813 0.191,-4.813 -2,1 -3,3 -2,5 -1.078,-0.809 -1.328,-1.992 -1.281,-3.344 -0.555,0.168 -1.113,0.344 -1.719,0.344 -0.832,0 -1.629,-0.164 -2.348,-0.469 -0.625,-0.266 -1.16,-0.676 -1.652,-1.125 m -0.004,0"
           id="path83-5-3-3"
           style="fill:#d35f5f;fill-rule:nonzero;stroke:none"
           inkscape:connector-curvature="0" />
      </g>
    </g>
  </g>
</svg>
